!!!OTL@@DE: Der Schneider Kakadu
!!!COM: M&uuml;ller, Wenzel
!!!ONB: Aus der Oper: Die zewi Schwestern aus Prag.
!!!ODT: 1794
!!!OMD: Moderato
!!!LYR: Perinet, Joachim
!!!LDT: 1794
!!!OCL: Erk, Ludwig
!!!GCO: Deutscher Liederschatz, Band 1
**kern	**kern	**kern
*staff3	*staff2	*staff1
*Ipiano	*Ipiano	*Ivox
*>[A,A,B,B,C,C,D]	*>[A,A,B,B,C,C,D]	*>[A,A,B,B,C,C,D]
*>norep[A,B,C,D]	*>norep[A,B,C,D]	*>norep[A,B,C,D]
*>A	*>A	*>A
*clefF4	*clefG2	*clefG2
*k[b-e-]	*k[b-e-]	*k[b-e-]
*B-:	*B-:	*B-:
*M2/4	*M2/4	*M2/4
*MM80	*MM80	*MM80
8r	8f/	8f/
*clefG2	*	*
=1	=1	=1
*^	*	*
8d/L	2B-\	8f/ 8b-/L	8b-\
8d/	.	8f/ 8b-/	8b-\
8e-/	.	8a/ 8cc/	8cc\
8e-/J	.	8a/ 8cc/J	8cc\
=2	=2	=2	=2
8f/L	4.B-\	8b-\ 8dd\L	8dd\
8f/	.	8b-\ 8dd\	8dd\
8g/	.	8b-\ 8ee-\	8ee-\
8f/J	8B-\	8b-\ 8dd\J	8dd\
*v	*v	*	*
*clefF4	*	*
=3	=3	=3
8E-\ 8e-\L	8g/ 8cc/L	8cc\
8e-\	8g/ 8cc/	8cc\
8F\ 8c\	8f/ 8a/	8a/
8c\J	8f/ 8a/J	8a/
=4	=4	=4
8B-\ 8d\L	8f/ 8b-/	8b-\
8d\ 8f\	8r	8r
8B-\ 8d\J	8r	8r
=:|!|:	=:|!|:	=:|!|:
*>B	*>B	*>B
8r	8f/	8f/
*clefG2	*	*
=5	=5	=5
*^	*	*
16e-/LL	4A\	8cc\L	8cc\
16f/	.	.	.
16e-/	.	8cc\	8cc\
16f/JJ	.	.	.
16e-/LL	4A\	8cc\	8cc\
16f/	.	.	.
16e-/	.	8cc\J	8cc\
16f/JJ	.	.	.
=6	=6	=6	=6
16d/LL	4B-\	8dd\L	8dd\
16f/	.	.	.
16d/	.	8b-\J	8b-\
16f/JJ	.	.	.
16d/LL	4B-\	(16b-\LL	8b-\
16f/	.	16dd\	.
16d/	.	16ff\	8r
16f/JJ	.	16bb-\JJ)	.
=7	=7	=7	=7
16e-/LL	4F\ 4c\	(16bb-\LL	2r
16f/	.	16aa\	.
16e-/	.	16gg\	.
16f/JJ	.	16ff\JJ)	.
16e-/LL	4F\ 4c\	(16een\LL	.
16f/	.	16ff\	.
16e-/	.	16gg\	.
16f/JJ	.	16ff\JJ)	.
=8	=8	=8	=8
16d/LL	8B-\L	(16bb-\LL	4r
16f/	.	16ff\	.
16d/	8B-\	16dd\	.
16f/JJ	.	16b-\JJ)	.
8d/	8B-\J	8f/	8r
*v	*v	*	*
=:|!|:	=:|!|:	=:|!|:
*>C	*>C	*>C
8r	8f/	8f/
*clefF4	*	*
=9	=9	=9
8BB-\ 8B-\L	8d/ 8f/ 8dd/L	8dd\
8BB-\ 8B-\	8d/ 8f/ 8dd/	8dd\
8BB-\ 8B-\	8d/ 8f/ 8dd/	8dd\
8D\ 8B-\J	8b-/J	8b-\
=10	=10	=10
8E-\ 8B-\L	8e-/ 8g/L	8g/
8E-\ 8B-\	8e-/ 8g/	8g/
8E-\ 8B-\J	8e-/ 8g/	8g/
8r	8g/J	8g/
=11	=11	=11
8F\L	8f/ 8a/ 8ee-/L	8ee-\
8F\ 8A\ 8e-\	8f/ 8cc/	8cc\
8F\ 8c\ 8e-\	8f/ 8a/	8a/
8F\ 8A\J	8e-/ 8f/J	8f/
=12	=12	=12
8B-\L	8d/ 8b-/L	8b-\
8BB-\	8f/ 8dd/	8dd\
8BB-\J	8d/ 8b-/J	8b-\
=:|!	=:|!	=:|!
*>D	*>D	*>D
8r	(16ddd\LL	8r
.	16bb-\JJ	.
=13	=13	=13
16B-\ 16d\LL	8ff\L)	2r
16f\	.	.
16B-\ 16d\	(16bb-\L	.
16f\JJ	16ff\JJ	.
16B-\ 16d\LL	8dd\L)	.
16f\	.	.
16B-\ 16d\	(16ff\L	.
16f\JJ	16dd\JJ	.
=14	=14	=14
16B-\ 16d\LL	8b-\L)	2r
16f\	.	.
16B-\ 16d\	(16dd\L	.
16f\JJ	16b-\JJ	.
16B-\ 16d\LL	8f\L)	.
16f\	.	.
16B-\ 16d\	(16dd\L	.
16f\JJ	16b-\JJ)	.
=15	=15	=15
(16c\ 16e-\LL	(16a\LL	2r
16f\	16b-\	.
16c\) 16e-\	16cc\	.
16f\JJ	16dd\JJ	.
16c\ 16e-\LL	16ee-\LL	.
16f\	16cc\	.
16c\ 16e-\	16b-\	.
16f\JJ	16a\JJ)	.
=16	=16	=16
*	*	*k[]
16B-\ 16d\LL	(16b-\LL	2r
16f\	16cc\	.
16B-\ 16d\	16dd\	.
16f\JJ	16ee-\JJ	.
16B-\ 16d\LL	16ff\LL	.
16f\	16gg\	.
16B-\ 16d\	16aa\	.
16f\JJ	16bb-\JJ)	.
=17	=17	=17
16c\ 16e-\LL	(16aa\LL	2r
16f\	16bb-\	.
16c\ 16e-\	16ccc\	.
16f\JJ	16ddd\JJ	.
16c\ 16e-\LL	16eee-\LL	.
16f\	16ccc\	.
16c\ 16e-\	16bb-\	.
16f\JJ	16aa\JJ)	.
=18	=18	=18
16B-\ 16d\LL	8bb-\L	2r
16f\	.	.
16B-\ 16d\	(16ddd\L	.
16f\JJ	16bb-\JJ	.
16B-\ 16d\LL	8ff\L)	.
16f\	.	.
16B-\ 16d\	(16bb-\L	.
16f\JJ	16ff\JJ	.
=19	=19	=19
16B-\ 16d\LL	8dd\L)	2r
16f\	.	.
16B-\ 16d\	(16ff\L	.
16f\JJ	16dd\JJ	.
16B-\ 16d\LL	8b-\L)	.
16f\	.	.
16B-\ 16d\	(16dd\L	.
16f\JJ	16b-\JJ)	.
=20	=20	=20
4E-\ 4G\ 4c\	(16cc\LL	2r
.	16gg\	.
.	16ff\	.
.	16ee-\JJ	.
8F\ 8B-\ 8d\L	8dd\L)	.
8F\ 8A\ 8e-\J	8cc\J	.
=21	=21	=21
8B-\ 8d\L	4b-\	2r
8B-\	.	.
8F\	4dd\ 4ff\ 4bb-\	.
8D\J	.	.
=22	=22	=22
4BB-/	4dd\ 4ff\ 4bb-\	4.r
8r	8r	.
==	==	==
*-	*-	*-
!!!ENC: Craig Stuart Sapp
!!!END: 2004/05/26/
!!!EFL: 056/651
